X: 1
T: Contentment is Wealth
N: page A56
N: heptatonic
S: Trad, arr. Paddy O�Brien
R: jig
E: 11
I: speed 350
M: 6/8
K: Edor
B/A/ |\
"Em"GFG Eed | BAB "(A7)"EAG | "D"F{G}AF DdB | AFD Def |\
"Em"gfe edB | "Bm"BAB dcd | "G"B{c}dB "D"DFA | "Em"GEE E2 :|
|: e/f/ |\
"Em"gbe gbe | gfg "(A7)"bag | "D"fdd add | fdf afd |\
"Em"gfe edB | "Bm"BAB dcd | "G"B{c}dB "D"DFA | "Em"GEE E2 :|
